static/assets/img/icons/theme/files/file-plus.svg

<svg height="24" viewBox="0 0 24 24" width="24" xmlns="http://www.w3.org/2000/svg"><g fill="none" fill-rule="evenodd"><path d="m0 0h24v24h-24z" opacity="0"/><g fill="#000"><path d="m5.85714286 2h7.87926854c.3546848 0 .6978952.12568431.9686994.35473959l4.7635886 4.02920201c.3369538.28500673.5313006.70393663.5313006 1.14526041v12.55413129c0 1.7905418-.0204479 1.9166667-1.8571429 1.9166667h-12.28571424c-1.83669499 0-1.85714286-.1261249-1.85714286-1.9166667v-16.16666663c0-1.79054178.02044787-1.91666667 1.85714286-1.91666667z" fill-rule="nonzero" opacity=".3"/><path d="m11 14h-2c-.55228475 0-1-.4477153-1-1s.44771525-1 1-1h2v-2c0-.55228475.4477153-1 1-1s1 .44771525 1 1v2h2c.5522847 0 1 .4477153 1 1s-.4477153 1-1 1h-2v2c0 .5522847-.4477153 1-1 1s-1-.4477153-1-1z"/></g></g></svg>

<svg width="24px" height="24px" viewBox="0 0 24 24" version="1.1" xmlns="http://www.w3.org/2000/svg" xmlns:xlink="http://www.w3.org/1999/xlink">
    <title>Icon For File-plus</title>
    <g stroke="none" stroke-width="1" fill="none" fill-rule="evenodd">
        <polygon points="0 0 24 0 24 24 0 24" opacity="0"></polygon>
        <path d="M5.85714286,2 L13.7364114,2 C14.0910962,2 14.4343066,2.12568431 14.7051108,2.35473959 L19.4686994,6.3839416 C19.8056532,6.66894833 20,7.08787823 20,7.52920201 L20,20.0833333 C20,21.8738751 19.9795521,22 18.1428571,22 L5.85714286,22 C4.02044787,22 4,21.8738751 4,20.0833333 L4,3.91666667 C4,2.12612489 4.02044787,2 5.85714286,2 Z" fill="#000000" fill-rule="nonzero" opacity="0.3"></path>
        <path d="M11,14 L9,14 C8.44771525,14 8,13.5522847 8,13 C8,12.4477153 8.44771525,12 9,12 L11,12 L11,10 C11,9.44771525 11.4477153,9 12,9 C12.5522847,9 13,9.44771525 13,10 L13,12 L15,12 C15.5522847,12 16,12.4477153 16,13 C16,13.5522847 15.5522847,14 15,14 L13,14 L13,16 C13,16.5522847 12.5522847,17 12,17 C11.4477153,17 11,16.5522847 11,16 L11,14 Z" fill="#000000"></path>
    </g>
</svg>
